X: 1
T: Rachel Rae
C: John Lowe (about 1815)
R: reel
S: printed MS of unknown origin
Z: 2009 by John Chambers <jc:trillian.mit.edu>
M: C|
L: 1/8
K: D
|: "D"D2FA d2A{B}c | d2fd "A7"e2cA | "D"d2Ad "G"BAGF | "A7"EFGA "D"FDD2 :|
[| "D"defg a2fd | "Em"g2bg "A7"e2cA | "D"defg a2fd | "A7"egfe "D"fddA |
|  "D"defg abaf | "Em"g2bg "A7"e2cA | "D"d2AF "G"BAGF | "A7"EFGA "D"FDD2 |]
